icons/svg/ethernet-cable-off.svg

﻿<?xml version="1.0" encoding="utf-8"?>
<!DOCTYPE svg PUBLIC "-//W3C//DTD SVG 1.1//EN" "http://www.w3.org/Graphics/SVG/1.1/DTD/svg11.dtd">
<svg xmlns="http://www.w3.org/2000/svg" xmlns:xlink="http://www.w3.org/1999/xlink" version="1.1" baseProfile="full" width="24" height="24" viewBox="0 0 24.00 24.00" enable-background="new 0 0 24.00 24.00" xml:space="preserve">
	<path fill="#000000" fill-opacity="1" stroke-width="1.33333" stroke-linejoin="miter" d="M 11,3L 13,3L 13,7L 11,7L 11,3 Z M 8,4L 10,4L 10,8L 14,8L 14,4L 16,4L 16,11L 12.8242,11L 8,6.1758L 8,4 Z M 20,20.7229L 18.7315,22L 14,17.2685L 14,22L 10,22L 10,13.2686L 2,5.2686L 3.27711,4L 20,20.7229 Z "/>
</svg>

<svg xmlns="http://www.w3.org/2000/svg" version="1.1" baseProfile="full" width="24" height="24" viewBox="0 0 24.00 24.00" xml:space="preserve"><path fill="#000" fill-opacity="1" stroke-width="1.333" stroke-linejoin="miter" d="M11 3h2v4h-2V3zM8 4h2v4h4V4h2v7h-3.176L8 6.176V4zm12 16.723L18.732 22 14 17.268V22h-4v-8.73l-8-8L3.277 4 20 20.723z"/></svg>
